storage/app/icons/phosphoricons/regular/align-center-horizontal.svg

<svg xmlns="http://www.w3.org/2000/svg" fill="currentColor" viewBox="0 0 256 256"><path d="M208 136h-72v-16h48a16 16 0 0 0 16-16V64a16 16 0 0 0-16-16h-48V32a8 8 0 0 0-16 0v16H72a16 16 0 0 0-16 16v40a16 16 0 0 0 16 16h48v16H48a16 16 0 0 0-16 16v40a16 16 0 0 0 16 16h72v16a8 8 0 0 0 16 0v-16h72a16 16 0 0 0 16-16v-40a16 16 0 0 0-16-16M72 64h112v40H72Zm136 128H48v-40h160z"/></svg>

<svg xmlns="http://www.w3.org/2000/svg" viewBox="0 0 256 256" fill="currentColor"><path d="M208,136H136V120h48a16,16,0,0,0,16-16V64a16,16,0,0,0-16-16H136V32a8,8,0,0,0-16,0V48H72A16,16,0,0,0,56,64v40a16,16,0,0,0,16,16h48v16H48a16,16,0,0,0-16,16v40a16,16,0,0,0,16,16h72v16a8,8,0,0,0,16,0V208h72a16,16,0,0,0,16-16V152A16,16,0,0,0,208,136ZM72,64H184v40H72ZM208,192H48V152H208v40Z"/></svg>
